X: 25756
T: Mary Prentice's
R: jig
M: 6/8
K: Amixolydian
Acf ecA|aff fec|aff fec|BGB edB|
Acf e2A|aff fec|aAf eca|BGB A2c:|
|:e2A Ace|f2d dfa|e2A Ace|BGB edB|
eAA Ace|fdf dfa|Ace BGe|ABA A2c:|

